public/assets/Estatein-Logo.svg

<svg width="160" height="48" viewBox="0 0 160 48" fill="none" xmlns="http://www.w3.org/2000/svg">
<path d="M24 48C10.7467 48 0 37.2533 0 24H24V48Z" fill="#703BF7"/>
<path d="M0 0C13.2533 0 24 10.7467 24 24H0V0Z" fill="#703BF7"/>
<path d="M24 48C37.2533 48 48 37.2533 48 24H24V48Z" fill="#703BF7"/>
<path d="M48 24C48 10.7467 37.2533 0 24 0V24H48Z" fill="#703BF7"/>
<path d="M156.82 34.8603V26.8535C156.82 25.9286 156.522 25.1674 155.924 24.57C155.346 23.9726 154.595 23.674 153.67 23.674C153.053 23.674 152.504 23.8088 152.022 24.0786C151.54 24.3484 151.165 24.7242 150.895 25.2059C150.625 25.6877 150.49 26.2369 150.49 26.8535L149.247 26.1598C149.247 25.0999 149.478 24.1653 149.941 23.356C150.403 22.5274 151.039 21.8818 151.849 21.4193C152.677 20.9376 153.602 20.6967 154.624 20.6967C155.664 20.6967 156.589 20.9665 157.398 21.5061C158.208 22.0264 158.844 22.7104 159.306 23.5583C159.769 24.387 160 25.2541 160 26.1598V34.8603H156.82ZM147.311 34.8603V20.9858H150.49V34.8603H147.311Z" fill="white"/>
<path d="M140.565 34.8603V20.9858H143.745V34.8603H140.565ZM142.155 18.4421C141.615 18.4421 141.162 18.2591 140.796 17.8929C140.449 17.5268 140.276 17.074 140.276 16.5344C140.276 15.9948 140.449 15.542 140.796 15.1758C141.162 14.8097 141.615 14.6266 142.155 14.6266C142.714 14.6266 143.166 14.8097 143.513 15.1758C143.86 15.542 144.034 15.9948 144.034 16.5344C144.034 17.074 143.86 17.5268 143.513 17.8929C143.166 18.2591 142.714 18.4421 142.155 18.4421Z" fill="white"/>
<path d="M131.541 35.1493C130.154 35.1493 128.901 34.841 127.783 34.2244C126.685 33.5885 125.808 32.7213 125.153 31.6229C124.517 30.5245 124.199 29.2912 124.199 27.923C124.199 26.5548 124.517 25.3312 125.153 24.2521C125.789 23.1537 126.647 22.2865 127.726 21.6506C128.824 21.0147 130.038 20.6967 131.368 20.6967C132.659 20.6967 133.796 20.9954 134.779 21.5928C135.781 22.1902 136.561 23.0091 137.12 24.0497C137.698 25.0903 137.987 26.2754 137.987 27.6051C137.987 27.8363 137.968 28.0772 137.929 28.3277C137.91 28.5589 137.871 28.8191 137.814 29.1081H126.425V26.5067H136.166L134.981 27.5473C134.942 26.6994 134.779 25.9864 134.489 25.4083C134.2 24.8302 133.786 24.387 133.247 24.0786C132.726 23.7703 132.081 23.6161 131.31 23.6161C130.501 23.6161 129.797 23.7896 129.2 24.1364C128.602 24.4833 128.14 24.9747 127.812 25.6106C127.485 26.2273 127.321 26.9692 127.321 27.8363C127.321 28.7035 127.494 29.4646 127.841 30.1198C128.188 30.775 128.68 31.2857 129.315 31.6518C129.951 31.9987 130.684 32.1721 131.512 32.1721C132.225 32.1721 132.88 32.0468 133.478 31.7963C134.094 31.5458 134.615 31.1797 135.039 30.6979L137.062 32.7502C136.388 33.5403 135.569 34.1377 134.605 34.5423C133.642 34.947 132.62 35.1493 131.541 35.1493Z" fill="white"/>
<path d="M116.677 34.8603V15.2047H119.856V34.8603H116.677ZM113.353 23.8763V20.9858H123.18V23.8763H113.353Z" fill="white"/>
<path d="M103.609 35.1493C102.357 35.1493 101.22 34.8314 100.198 34.1955C99.1964 33.5596 98.3967 32.702 97.7993 31.6229C97.2212 30.5245 96.9321 29.3008 96.9321 27.9519C96.9321 26.5838 97.2212 25.3601 97.7993 24.281C98.3967 23.1826 99.1964 22.3154 100.198 21.6795C101.22 21.0243 102.357 20.6967 103.609 20.6967C104.669 20.6967 105.604 20.928 106.413 21.3904C107.242 21.8337 107.897 22.4503 108.379 23.2404C108.86 24.0305 109.101 24.9265 109.101 25.9286V29.9175C109.101 30.9195 108.86 31.8156 108.379 32.6057C107.916 33.3958 107.271 34.022 106.442 34.4845C105.613 34.9277 104.669 35.1493 103.609 35.1493ZM104.13 32.1432C105.305 32.1432 106.249 31.7482 106.962 30.9581C107.695 30.168 108.061 29.1563 108.061 27.923C108.061 27.0944 107.897 26.3621 107.569 25.7262C107.242 25.0903 106.779 24.5989 106.182 24.2521C105.604 23.8859 104.92 23.7029 104.13 23.7029C103.359 23.7029 102.675 23.8859 102.077 24.2521C101.499 24.5989 101.037 25.0903 100.69 25.7262C100.362 26.3621 100.198 27.0944 100.198 27.923C100.198 28.7516 100.362 29.4839 100.69 30.1198C101.037 30.7557 101.499 31.2568 102.077 31.6229C102.675 31.9698 103.359 32.1432 104.13 32.1432ZM107.858 34.8603V31.1315L108.408 27.7496L107.858 24.3966V20.9858H111.038V34.8603H107.858Z" fill="white"/>
<path d="M89.3798 34.8603V15.2047H92.5593V34.8603H89.3798ZM86.0557 23.8763V20.9858H95.8834V23.8763H86.0557Z" fill="white"/>
<path d="M79.3879 35.1493C78.6171 35.1493 77.8752 35.053 77.1622 34.8603C76.4492 34.6483 75.794 34.3593 75.1966 33.9931C74.5992 33.6077 74.079 33.1452 73.6357 32.6057L75.6591 30.5823C76.1409 31.1411 76.6901 31.5651 77.3067 31.8541C77.9426 32.1239 78.6556 32.2588 79.4457 32.2588C80.1587 32.2588 80.6983 32.1528 81.0644 31.9409C81.4305 31.7289 81.6136 31.4206 81.6136 31.0159C81.6136 30.5919 81.4402 30.2644 81.0933 30.0331C80.7464 29.8019 80.2936 29.6092 79.7347 29.455C79.1952 29.2816 78.6171 29.1081 78.0004 28.9347C77.4031 28.7613 76.825 28.53 76.2661 28.241C75.7266 27.9327 75.2833 27.5184 74.9365 26.9981C74.5896 26.4778 74.4162 25.8033 74.4162 24.9747C74.4162 24.0883 74.6185 23.3271 75.0232 22.6912C75.4471 22.0553 76.0349 21.5639 76.7864 21.217C77.5572 20.8701 78.4726 20.6967 79.5324 20.6967C80.6501 20.6967 81.6329 20.8991 82.4807 21.3037C83.3479 21.6891 84.0705 22.2769 84.6486 23.0669L82.6253 25.0903C82.2206 24.5893 81.7581 24.2135 81.2378 23.963C80.7175 23.7125 80.1202 23.5872 79.4457 23.5872C78.8098 23.5872 78.3184 23.6836 77.9715 23.8763C77.6247 24.069 77.4512 24.3484 77.4512 24.7145C77.4512 25.0999 77.6247 25.3986 77.9715 25.6106C78.3184 25.8226 78.7616 26.0056 79.3012 26.1598C79.86 26.314 80.4381 26.4874 81.0355 26.6801C81.6521 26.8535 82.2302 27.104 82.7698 27.4316C83.3286 27.74 83.7815 28.1639 84.1283 28.7035C84.4752 29.2238 84.6486 29.9079 84.6486 30.7557C84.6486 32.1047 84.1765 33.1741 83.2323 33.9642C82.288 34.7543 81.0066 35.1493 79.3879 35.1493Z" fill="white"/>
<path d="M58.2339 34.8603V14.6266H61.558V34.8603H58.2339ZM60.5174 34.8603V31.8253H71.8483V34.8603H60.5174ZM60.5174 25.9864V23.067H70.8655V25.9864H60.5174ZM60.5174 17.6617V14.6266H71.7037V17.6617H60.5174Z" fill="white"/>
</svg>

<svg xmlns="http://www.w3.org/2000/svg" width="160" height="48" fill="none" viewBox="0 0 160 48"><path fill="#703bf7" d="M24 48C10.747 48 0 37.253 0 24h24zM0 0c13.253 0 24 10.747 24 24H0zM24 48c13.253 0 24-10.747 24-24H24zM48 24C48 10.747 37.253 0 24 0v24z"/><path fill="#fff" d="M156.82 34.86v-8.006q0-1.388-.896-2.284-.867-.896-2.254-.896-.925 0-1.648.405-.722.404-1.127 1.127-.405.722-.405 1.648l-1.243-.694q0-1.59.694-2.804a5 5 0 0 1 1.908-1.937q1.242-.722 2.775-.722 1.56 0 2.774.81a5.57 5.57 0 0 1 1.908 2.051q.694 1.243.694 2.602v8.7zm-9.509 0V20.986h3.179V34.86zM140.565 34.86V20.986h3.18V34.86zm1.59-16.418q-.81 0-1.359-.55-.52-.548-.52-1.358t.52-1.358q.549-.55 1.359-.55.838 0 1.358.55t.521 1.358-.521 1.359q-.52.55-1.358.55M131.541 35.15q-2.08 0-3.758-.926a7.24 7.24 0 0 1-2.63-2.601q-.954-1.648-.954-3.7t.954-3.67a7.1 7.1 0 0 1 2.573-2.602q1.647-.954 3.642-.954 1.936 0 3.411.896a6.25 6.25 0 0 1 2.341 2.457q.867 1.56.867 3.555 0 .347-.058.723a7 7 0 0 1-.115.78h-11.389v-2.601h9.741l-1.185 1.04q-.058-1.271-.492-2.139a3.08 3.08 0 0 0-1.242-1.33q-.781-.462-1.937-.462-1.214 0-2.11.52a3.54 3.54 0 0 0-1.388 1.475q-.49.924-.491 2.225 0 1.301.52 2.284a3.77 3.77 0 0 0 1.474 1.532q.954.52 2.197.52 1.07 0 1.966-.376a4.1 4.1 0 0 0 1.561-1.098l2.023 2.052a6.5 6.5 0 0 1-2.457 1.792 7.8 7.8 0 0 1-3.064.607M116.677 34.86V15.205h3.179V34.86zm-3.324-10.984v-2.89h9.827v2.89zM103.609 35.15q-1.878 0-3.411-.954a7 7 0 0 1-2.399-2.573q-.867-1.648-.867-3.671 0-2.052.867-3.671.897-1.648 2.399-2.601 1.533-.983 3.411-.983 1.59 0 2.804.693a5.05 5.05 0 0 1 1.966 1.85q.722 1.185.722 2.689v3.989q0 1.503-.722 2.688a5.05 5.05 0 0 1-1.937 1.878q-1.243.666-2.833.665m.521-3.007q1.762 0 2.832-1.185 1.1-1.185 1.099-3.035 0-1.242-.492-2.197a3.53 3.53 0 0 0-1.387-1.474q-.867-.55-2.052-.55-1.156 0-2.053.55a3.8 3.8 0 0 0-1.387 1.474q-.492.954-.492 2.197 0 1.242.492 2.197a4 4 0 0 0 1.387 1.503q.897.52 2.053.52m3.728 2.717v-3.729l.55-3.381-.55-3.353v-3.411h3.18V34.86zM89.38 34.86V15.205h3.18V34.86zm-3.324-10.984v-2.89h9.827v2.89zM79.388 35.15q-1.156 0-2.226-.29a8.2 8.2 0 0 1-1.965-.867 6.7 6.7 0 0 1-1.561-1.387l2.023-2.024a4.9 4.9 0 0 0 1.648 1.272q.954.405 2.139.405 1.07 0 1.618-.318.55-.318.55-.925 0-.636-.52-.983-.521-.347-1.36-.578a49 49 0 0 0-1.734-.52 9.6 9.6 0 0 1-1.734-.694 3.9 3.9 0 0 1-1.33-1.243q-.52-.78-.52-2.023 0-1.33.607-2.284.636-.954 1.763-1.474 1.157-.52 2.746-.52 1.676 0 2.949.607 1.3.578 2.168 1.763l-2.024 2.023a4 4 0 0 0-1.387-1.127q-.78-.376-1.792-.376-.954 0-1.474.29-.52.288-.52.838 0 .578.52.896t1.33.549q.837.23 1.733.52a7 7 0 0 1 1.735.752 3.74 3.74 0 0 1 1.358 1.271q.52.78.52 2.053 0 2.023-1.416 3.208t-3.844 1.185M58.234 34.86V14.627h3.324V34.86zm2.283 0v-3.035h11.331v3.035zm0-8.874v-2.919h10.348v2.92zm0-8.324v-3.035h11.187v3.035z"/></svg>
